SVG_Azure_All/Azure Database for PostgreSQL.svg

<?xml version="1.0" encoding="UTF-8" standalone="no"?>
<!-- Generated by Microsoft Visio, SVG Export Azure Database for PostgreSQL.svg Page-1 -->

<svg
   xmlns:dc="http://purl.org/dc/elements/1.1/"
   xmlns:cc="http://creativecommons.org/ns#"
   xmlns:rdf="http://www.w3.org/1999/02/22-rdf-syntax-ns#"
   xmlns:svg="http://www.w3.org/2000/svg"
   xmlns="http://www.w3.org/2000/svg"
   xmlns:sodipodi="http://sodipodi.sourceforge.net/DTD/sodipodi-0.dtd"
   xmlns:inkscape="http://www.inkscape.org/namespaces/inkscape"
   width="0.59055233in"
   height="0.78748322in"
   viewBox="0 0 42.519769 56.699102"
   xml:space="preserve"
   class="st6"
   version="1.1"
   id="svg55"
   sodipodi:docname="Azure Database for PostgreSQL.svg"
   style="font-size:12px;overflow:visible;color-interpolation-filters:sRGB;fill:none;fill-rule:evenodd;stroke-linecap:square;stroke-miterlimit:3"
   inkscape:version="0.92.5 (2060ec1f9f, 2020-04-08)"><metadata
   id="metadata59"><rdf:RDF><cc:Work
       rdf:about=""><dc:format>image/svg+xml</dc:format><dc:type
         rdf:resource="http://purl.org/dc/dcmitype/StillImage" /></cc:Work></rdf:RDF></metadata><sodipodi:namedview
   pagecolor="#ffffff"
   bordercolor="#666666"
   borderopacity="1"
   objecttolerance="10"
   gridtolerance="10"
   guidetolerance="10"
   inkscape:pageopacity="0"
   inkscape:pageshadow="2"
   inkscape:window-width="640"
   inkscape:window-height="480"
   id="namedview57"
   showgrid="false"
   inkscape:zoom="1.4193119"
   inkscape:cx="28.346509"
   inkscape:cy="37.786193"
   inkscape:window-x="0"
   inkscape:window-y="0"
   inkscape:window-maximized="0"
   inkscape:current-layer="svg55" />
	<style
   type="text/css"
   id="style2">
	<![CDATA[
		.st1 {fill:url(#grad0-6);stroke:none;stroke-linecap:butt;stroke-width:34}
		.st2 {fill:#e8e8e8;stroke:none;stroke-linecap:butt;stroke-width:34}
		.st3 {fill:#50e6ff;stroke:none;stroke-linecap:butt;stroke-width:34}
		.st4 {fill:#198ab3;stroke:none;stroke-linecap:butt;stroke-width:34}
		.st5 {fill:#f2f2f2;stroke:none;stroke-linecap:butt;stroke-width:34}
		.st6 {fill:none;fill-rule:evenodd;font-size:12px;overflow:visible;stroke-linecap:square;stroke-miterlimit:3}
	]]>
	</style>

	<defs
   id="Patterns_And_Gradients">
		<linearGradient
   id="grad0-6"
   x1="0"
   y1="70.5925"
   x2="45.626519"
   y2="70.5925"
   gradientTransform="scale(0.93191419,1.0730602)"
   gradientUnits="userSpaceOnUse">
			<stop
   offset="0"
   stop-color="#005ba1"
   stop-opacity="1"
   id="stop4" />
			<stop
   offset="0.07"
   stop-color="#0060a9"
   stop-opacity="1"
   id="stop6" />
			<stop
   offset="0.36"
   stop-color="#0071c8"
   stop-opacity="1"
   id="stop8" />
			<stop
   offset="0.52"
   stop-color="#0078d4"
   stop-opacity="1"
   id="stop10" />
			<stop
   offset="0.64"
   stop-color="#0074cd"
   stop-opacity="1"
   id="stop12" />
			<stop
   offset="0.82"
   stop-color="#006abb"
   stop-opacity="1"
   id="stop14" />
			<stop
   offset="1"
   stop-color="#005ba1"
   stop-opacity="1"
   id="stop16" />
		</linearGradient>
	</defs>
	<g
   id="g53"
   transform="translate(-34.000303,-33.9952)">
		<title
   id="title20">Page-1</title>
		<g
   id="group8229-1"
   transform="translate(34,-34.0157)">
			<title
   id="title22">Azure Database for PostgreSQL</title>
			<g
   id="group8230-2">
				<title
   id="title24">Icon-databases-131</title>
				<g
   id="shape8231-3">
					<title
   id="title26">Sheet.8231</title>
					<path
   d="M 21.26,83.49 C 9.52,83.49 0,80.15 0,75.75 v 41.22 c 0,4.24 9.35,7.67 20.96,7.74 h 0.3 c 11.74,0 21.26,-3.34 21.26,-7.74 V 75.75 c 0,4.27 -9.52,7.74 -21.26,7.74 z"
   class="st1"
   id="path28"
   inkscape:connector-curvature="0"
   style="fill:url(#grad0-6);stroke:none;stroke-width:34;stroke-linecap:butt" />
				</g>
				<g
   id="shape8232-7"
   transform="translate(0,-41.2191)">
					<title
   id="title31">Sheet.8232</title>
					<path
   d="m 42.52,116.97 c 0,4.27 -9.52,7.74 -21.26,7.74 C 9.52,124.71 0,121.37 0,116.97 c 0,-4.4 9.52,-7.74 21.26,-7.74 11.74,0 21.26,3.34 21.26,7.74 z"
   class="st2"
   id="path33"
   inkscape:connector-curvature="0"
   style="fill:#e8e8e8;stroke:none;stroke-width:34;stroke-linecap:butt" />
				</g>
				<g
   id="shape8233-9"
   transform="translate(4.94184,-44.654)">
					<title
   id="title36">Sheet.8233</title>
					<path
   d="m 32.6,119.77 c 0,2.74 -7.29,4.94 -16.28,4.94 -8.99,0 -16.32,-2.2 -16.32,-4.9 0,-2.7 7.3,-4.94 16.32,-4.94 9.02,0 16.28,2.2 16.28,4.9 z"
   class="st3"
   id="path38"
   inkscape:connector-curvature="0"
   style="fill:#50e6ff;stroke:none;stroke-width:34;stroke-linecap:butt" />
				</g>
				<g
   id="shape8234-11"
   transform="translate(8.32484,-44.654)">
					<title
   id="title41">Sheet.8234</title>
					<path
   d="m 12.94,121.01 a 38.6392,38.8513 -180 0 0 -12.94,1.9 38.2412,38.4511 -180 0 0 12.94,1.8 38.0422,38.251 -180 0 0 12.9,-1.94 39.5679,39.7851 -180 0 0 -12.9,-1.76 z"
   class="st4"
   id="path43"
   inkscape:connector-curvature="0"
   style="fill:#198ab3;stroke:none;stroke-width:34;stroke-linecap:butt" />
				</g>
				<g
   id="shape8235-13"
   transform="translate(6.33484,-5.90273)">
					<title
   id="title46">Sheet.8235</title>
					<path
   d="m 24.88,102.26 v 1.41 a 16.9813,17.0746 -180 0 0 -0.27,2.1 c 0,0.4 0,1 0.17,1.53 0.16,0.53 0,0.9 0,1.2 a 5.572,5.60259 0 0 1 -0.83,2.87 1.42617,1.434 -180 0 0 0,0.23 l 0.33,0.4 a 34.9908,35.183 -180 0 0 3.51,-7.93 c 0.93,-3.17 1.03,-5.44 0.3,-6.41 a 8.557,8.60398 -180 0 0 -8.89,-2.87 10.9118,10.9717 0 0 1 3.02,2.24 7.562,7.60352 0 0 1 2.66,5.23 z m -1.03,0.27 a 3.81417,3.83511 -180 0 0 -2.62,0.3 c -0.97,0.6 -0.67,1.84 0,3.34 a 25.7705,25.912 -180 0 0 1.16,2.83 l 0.3,0.53 c 0.16,0.27 0.26,0.51 0.36,0.67 l 0.27,0.44 a 4.24534,4.26864 -180 0 0 0.59,-2.17 9.48567,9.53775 -180 0 0 0,-1.1 c 0,-0.57 0,-1.2 -0.16,-1.64 a 20.2317,20.3428 0 0 1 0.26,-2.3 2.56378,2.57786 0 0 1 -0.03,-1 z m -1,1.37 a 1.32667,1.33395 0 0 1 -0.6,0.33 1.0945,1.10051 0 0 1 -0.46,0 0.762834,0.767022 0 0 1 -0.232167,-0.63363 C 21.56,103.37 21.92,103.17 22.35,103.1 h 0.63 c 0,0 0.3,0 0.3,0.27 a 0.663334,0.666975 0 0 1 -0.2985,0.43353 z M 7.3,106.87 v -0.57 a 3.31667,3.33488 -180 0 0 0,-0.57 18.4075,18.5086 0 0 1 0,-3.33 17.313,17.4081 0 0 1 0.99,-3.67 7.99317,8.03705 0 0 1 1.93,-3.13 15.8537,15.9407 -180 0 0 -4.48,-0.67 6.20217,6.23622 -180 0 0 -3.65,1 A 6.63334,6.66975 -180 0 0 0,102 a 40.6955,40.9189 -180 0 0 1.66,7.47 c 1.13,3.8 2.42,6.13 3.55,6.5 0.49,0.17 1.03,0 1.56,-0.7 0.92,-1.13 1.79,-2.1 2.28,-2.67 a 6.23534,6.26957 0 0 1 -1.62,-5.83 z m 0.86,1.33 a 7.23034,7.27003 -180 0 0 0.2,1.87 4.975,5.00232 -180 0 0 0.86,1.47 3.54883,3.56832 -180 0 0 1.16,0.83 3.61517,3.63502 -180 0 0 1.29,0.27 c 0,-0.57 0.47,-1.27 0.77,-2 a 14.4275,14.5067 -180 0 0 0.69,-1.97 21.9232,22.0435 -180 0 0 0,-3.7 c 0,-0.3 0,-0.64 -0.19,-1 a 1.4925,1.50069 -180 0 0 -0.4,-0.9 2.189,2.20102 -180 0 0 -0.93,-0.54 h -0.66 a 5.174,5.20241 -180 0 0 -1.6,0.47 6.63334,6.66975 -180 0 0 -1.06,0.63 v 2.4 a 2.85233,2.86799 0 0 1 0,0.5 v 1.3 z m 2.19,-4.47 a 1.52567,1.53404 0 0 1 0.93,0 1.99,2.00093 0 0 1 0.63,0.2 c 0.3,0 0.33,0.37 0.3,0.47 a 1.22717,1.2339 0 0 1 -0.4,0.43 0.995,1.00046 0 0 1 -0.199,-0.13339 A 1.12767,1.13386 0 0 1 10.68,103.77 Z m 2.45,10.01 a 0.762834,0.767022 -180 0 0 -0.431167,0.20009 L 11.91,114.5 c -0.57,0.7 -0.8,0.94 -2.42,1.27 a 1.72467,1.73414 -180 0 0 -0.87,0.33 1.92367,1.93423 -180 0 0 0.8,0.37 3.91367,3.93516 -180 0 0 2.39,0 5.63834,5.66929 -180 0 0 1.29,-0.87 2.02317,2.03428 -180 0 0 0.66,-1.03 1.194,1.20056 -180 0 0 -0.33,-0.93 0.4975,0.500232 -180 0 0 -0.4975,-0.0667 z m 15.29,0 a 5.40617,5.43585 0 0 1 -3.75,0 0.729667,0.733673 -180 0 0 -0.464334,0 0.995,1.00046 -180 0 0 -0.563834,0.46688 3.61517,3.63502 -180 0 0 0.0082,1.03312 5.97,6.00278 -180 0 0 3.64,-0.34 4.51067,4.53543 -180 0 0 1.6,-1.13 z m -7.96,-7.14 c -0.46,-1.37 -1.13,-3.33 0.6,-4.54 a 4.4775,4.50208 0 0 1 2.95,-0.5 10.547,10.6049 -180 0 0 -2.12,-3.83 l -0.33,-0.33 -0.2,-0.2 a 1.12767,1.13386 -180 0 0 -0.2,-0.2 7.761,7.80361 -180 0 0 -2.22,-1.4 8.72284,8.77073 -180 0 0 -3.68,-0.74 5.04134,5.06901 -180 0 0 -2.33,0.37 5.8705,5.90273 -180 0 0 -0.99,0.37 6.965,7.00324 -180 0 0 -2.46,3.33 19.3693,19.4757 -180 0 0 -0.69,3.33 5.50567,5.5359 0 0 1 3.31,-0.76 2.786,2.8013 0 0 1 2.56,3.03 24.079,24.2112 0 0 1 0,4.24 12.8355,12.906 0 0 1 -0.76,2.1 c -0.2,0.57 -0.47,1.17 -0.6,1.63 a 1.65833,1.66744 0 0 1 1.26,0.47 2.189,2.20102 0 0 1 0.63,1.77 h 0.07 v 0.8 a 21.7242,21.8434 -180 0 0 0.79,8.13 1.791,1.80083 -180 0 0 0.8,0.71 1.99,2.00093 -180 0 0 1.03,0.33 4.31167,4.33534 -180 0 0 3.31,-1.14 3.4825,3.50162 -180 0 0 0.96,-2.2 c 0.24,-1.5 0.73,-5.67 0.8,-6.67 a 2.388,2.40111 0 0 1 0.3,-1.46 2.0895,2.10097 0 0 1 0.89,-0.8 17.7773,17.8749 0 0 1 -3.55,-6.04 z"
   class="st5"
   id="path48"
   inkscape:connector-curvature="0"
   style="fill:#f2f2f2;stroke:none;stroke-width:34;stroke-linecap:butt" />
				</g>
			</g>
		</g>
	</g>
</svg>

<?xml version="1.0" encoding="UTF-8" standalone="no"?>
<!DOCTYPE svg PUBLIC "-//W3C//DTD SVG 1.1//EN" "http://www.w3.org/Graphics/SVG/1.1/DTD/svg11.dtd">
<!-- Generated by Microsoft Visio, SVG Export Azure Database for PostgreSQL.svg Page-1 -->
<svg xmlns="http://www.w3.org/2000/svg" xmlns:xlink="http://www.w3.org/1999/xlink" xmlns:ev="http://www.w3.org/2001/xml-events"
		width="1.535in" height="1.73206in" viewBox="0 0 110.52 124.709" xml:space="preserve" color-interpolation-filters="sRGB"
		class="st6">
	<style type="text/css">
	<![CDATA[
		.st1 {fill:url(#grad0-6);stroke:none;stroke-linecap:butt;stroke-width:34}
		.st2 {fill:#e8e8e8;stroke:none;stroke-linecap:butt;stroke-width:34}
		.st3 {fill:#50e6ff;stroke:none;stroke-linecap:butt;stroke-width:34}
		.st4 {fill:#198ab3;stroke:none;stroke-linecap:butt;stroke-width:34}
		.st5 {fill:#f2f2f2;stroke:none;stroke-linecap:butt;stroke-width:34}
		.st6 {fill:none;fill-rule:evenodd;font-size:12px;overflow:visible;stroke-linecap:square;stroke-miterlimit:3}
	]]>
	</style>

	<defs id="Patterns_And_Gradients">
		<linearGradient id="grad0-6" x1="0" y1="0" x2="1" y2="0" gradientTransform="rotate(-0.0087329700482936 0.5 0.5)">
			<stop offset="0" stop-color="#005ba1" stop-opacity="1"/>
			<stop offset="0.07" stop-color="#0060a9" stop-opacity="1"/>
			<stop offset="0.36" stop-color="#0071c8" stop-opacity="1"/>
			<stop offset="0.52" stop-color="#0078d4" stop-opacity="1"/>
			<stop offset="0.64" stop-color="#0074cd" stop-opacity="1"/>
			<stop offset="0.82" stop-color="#006abb" stop-opacity="1"/>
			<stop offset="1" stop-color="#005ba1" stop-opacity="1"/>
		</linearGradient>
	</defs>
	<g>
		<title>Page-1</title>
		<g id="group8034-1" transform="translate(34,-34.0157)">
			<title>Azure Database for PostgreSQL</title>
			<g id="group8035-2">
				<title>Icon-databases-131</title>
				<g id="shape8036-3">
					<title>Sheet.8036</title>
					<path d="M21.26 83.49 C9.52 83.49 0 80.15 0 75.75 L0 116.97 C0 121.21 9.35 124.64 20.96 124.71 L21.26 124.71
								 C33 124.71 42.52 121.37 42.52 116.97 L42.52 75.75 C42.52 80.02 33 83.49 21.26 83.49 Z" class="st1"/>
				</g>
				<g id="shape8037-7" transform="translate(0,-41.2191)">
					<title>Sheet.8037</title>
					<path d="M42.52 116.97 C42.52 121.24 33 124.71 21.26 124.71 C9.52 124.71 0 121.37 0 116.97 C0 112.57 9.52 109.23
								 21.26 109.23 C33 109.23 42.52 112.57 42.52 116.97 Z" class="st2"/>
				</g>
				<g id="shape8038-9" transform="translate(4.94184,-44.654)">
					<title>Sheet.8038</title>
					<path d="M32.6 119.77 C32.6 122.51 25.31 124.71 16.32 124.71 C7.33 124.71 0 122.51 0 119.81 C0 117.11 7.3 114.87
								 16.32 114.87 C25.34 114.87 32.6 117.07 32.6 119.77 Z" class="st3"/>
				</g>
				<g id="shape8039-11" transform="translate(8.32484,-44.654)">
					<title>Sheet.8039</title>
					<path d="M12.94 121.01 A38.6392 38.8513 -180 0 0 0 122.91 A38.2412 38.4511 -180 0 0 12.94 124.71 A38.0422 38.251
								 -180 0 0 25.84 122.77 A39.5679 39.7851 -180 0 0 12.94 121.01 Z" class="st4"/>
				</g>
				<g id="shape8040-13" transform="translate(6.33484,-5.90273)">
					<title>Sheet.8040</title>
					<path d="M24.88 102.26 L24.88 103.67 A16.9813 17.0746 -180 0 0 24.61 105.77 C24.61 106.17 24.61 106.77 24.78
								 107.3 C24.94 107.83 24.78 108.2 24.78 108.5 A5.572 5.60259 0 0 1 23.95 111.37 A1.42617 1.434 -180
								 0 0 23.95 111.6 L24.28 112 A34.9908 35.183 -180 0 0 27.79 104.07 C28.72 100.9 28.82 98.63 28.09
								 97.66 A8.557 8.60398 -180 0 0 19.2 94.79 A10.9118 10.9717 0 0 1 22.22 97.03 A7.562 7.60352 0 0 1
								 24.88 102.26 ZM23.85 102.53 A3.81417 3.83511 -180 0 0 21.23 102.83 C20.26 103.43 20.56 104.67 21.23
								 106.17 A25.7705 25.912 -180 0 0 22.39 109 L22.69 109.53 C22.85 109.8 22.95 110.04 23.05 110.2 L23.32
								 110.64 A4.24534 4.26864 -180 0 0 23.91 108.47 A9.48567 9.53775 -180 0 0 23.91 107.37 C23.91 106.8
								 23.91 106.17 23.75 105.73 A20.2317 20.3428 0 0 1 24.01 103.43 A2.56378 2.57786 0 0 1 23.98 102.43
								 L23.85 102.53 ZM22.85 103.9 A1.32667 1.33395 0 0 1 22.25 104.23 A1.0945 1.10051 0 0 1 21.79 104.23
								 a0.762834 0.767022 0 0 1 -0.232167 -0.633627 C21.56 103.37 21.92 103.17 22.35 103.1 L22.98 103.1
								 C22.98 103.1 23.28 103.1 23.28 103.37 a0.663334 0.666975 0 0 1 -0.2985 0.433534 L22.85 103.9 ZM7.3
								 106.87 L7.3 106.3 A3.31667 3.33488 -180 0 0 7.3 105.73 A18.4075 18.5086 0 0 1 7.3 102.4 A17.313
								 17.4081 0 0 1 8.29 98.73 A7.99317 8.03705 0 0 1 10.22 95.6 A15.8537 15.9407 -180 0 0 5.74 94.93
								 A6.20217 6.23622 -180 0 0 2.09 95.93 A6.63334 6.66975 -180 0 0 0 102 A40.6955 40.9189 -180 0 0 1.66
								 109.47 C2.79 113.27 4.08 115.6 5.21 115.97 C5.7 116.14 6.24 115.97 6.77 115.27 C7.69 114.14 8.56
								 113.17 9.05 112.6 A6.23534 6.26957 0 0 1 7.43 106.77 L7.3 106.87 ZM8.16 108.2 A7.23034 7.27003 -180
								 0 0 8.36 110.07 A4.975 5.00232 -180 0 0 9.22 111.54 A3.54883 3.56832 -180 0 0 10.38 112.37 A3.61517
								 3.63502 -180 0 0 11.67 112.64 C11.67 112.07 12.14 111.37 12.44 110.64 A14.4275 14.5067 -180 0 0
								 13.13 108.67 A21.9232 22.0435 -180 0 0 13.13 104.97 C13.13 104.67 13.13 104.33 12.94 103.97 A1.4925
								 1.50069 -180 0 0 12.54 103.07 A2.189 2.20102 -180 0 0 11.61 102.53 L10.95 102.53 A5.174 5.20241
								 -180 0 0 9.35 103 A6.63334 6.66975 -180 0 0 8.29 103.63 L8.29 106.03 A2.85233 2.86799 0 0 1 8.29
								 106.53 L8.29 107.83 L8.16 108.2 ZM10.35 103.73 A1.52567 1.53404 0 0 1 11.28 103.73 A1.99 2.00093
								 0 0 1 11.91 103.93 C12.21 103.93 12.24 104.3 12.21 104.4 A1.22717 1.2339 0 0 1 11.81 104.83 a0.995
								 1.00046 0 0 1 -0.199 -0.133395 A1.12767 1.13386 0 0 1 10.68 103.77 L10.35 103.73 ZM12.8 113.74 a0.762834
								 0.767022 -180 0 0 -0.431167 0.200093 L11.91 114.5 C11.34 115.2 11.11 115.44 9.49 115.77 A1.72467
								 1.73414 -180 0 0 8.62 116.1 A1.92367 1.93423 -180 0 0 9.42 116.47 A3.91367 3.93516 -180 0 0 11.81
								 116.47 A5.63834 5.66929 -180 0 0 13.1 115.6 A2.02317 2.03428 -180 0 0 13.76 114.57 A1.194 1.20056
								 -180 0 0 13.43 113.64 a0.4975 0.500232 -180 0 0 -0.4975 -0.0666975 L12.8 113.74 ZM28.09 113.74 A5.40617
								 5.43585 0 0 1 24.34 113.74 a0.729667 0.733673 -180 0 0 -0.464334 -1.42109E-14 a0.995 1.00046 -180
								 0 0 -0.563834 0.466883 A3.61517 3.63502 -180 0 0 23.32 115.24 A5.97 6.00278 -180 0 0 26.96 114.9
								 A4.51067 4.53543 -180 0 0 28.56 113.77 L28.09 113.74 ZM20.13 106.6 C19.67 105.23 19 103.27 20.73
								 102.06 A4.4775 4.50208 0 0 1 23.68 101.56 A10.547 10.6049 -180 0 0 21.56 97.73 L21.23 97.4 L21.03
								 97.2 A1.12767 1.13386 -180 0 0 20.83 97 A7.761 7.80361 -180 0 0 18.61 95.6 A8.72284 8.77073 -180
								 0 0 14.93 94.86 A5.04134 5.06901 -180 0 0 12.6 95.23 A5.8705 5.90273 -180 0 0 11.61 95.6 A6.965
								 7.00324 -180 0 0 9.15 98.93 A19.3693 19.4757 -180 0 0 8.46 102.26 A5.50567 5.5359 0 0 1 11.77 101.5
								 A2.786 2.8013 0 0 1 14.33 104.53 A24.079 24.2112 0 0 1 14.33 108.77 A12.8355 12.906 0 0 1 13.57
								 110.87 C13.37 111.44 13.1 112.04 12.97 112.5 A1.65833 1.66744 0 0 1 14.23 112.97 A2.189 2.20102
								 0 0 1 14.86 114.74 L14.93 114.74 L14.93 115.54 A21.7242 21.8434 -180 0 0 15.72 123.67 A1.791 1.80083
								 -180 0 0 16.52 124.38 A1.99 2.00093 -180 0 0 17.55 124.71 A4.31167 4.33534 -180 0 0 20.86 123.57
								 A3.4825 3.50162 -180 0 0 21.82 121.37 C22.06 119.87 22.55 115.7 22.62 114.7 A2.388 2.40111 0 0 1
								 22.92 113.24 A2.0895 2.10097 0 0 1 23.81 112.44 A17.7773 17.8749 0 0 1 20.26 106.4 L20.13 106.6
								 Z" class="st5"/>
				</g>
			</g>
		</g>
	</g>
</svg>
